markup/static/img/svg/s-link.svg

<?xml version="1.0" encoding="UTF-8"?>
<svg width="16px" height="16px" viewBox="0 0 16 16" version="1.1" xmlns="http://www.w3.org/2000/svg" xmlns:xlink="http://www.w3.org/1999/xlink">
    <!-- Generator: Sketch 46.2 (44496) - http://www.bohemiancoding.com/sketch -->
    <title>Combined Shape</title>
    <desc>Created with Sketch.</desc>
    <defs></defs>
    <g id="02-Model-card" stroke="none" stroke-width="1" fill="none" fill-rule="evenodd">
        <g id="02_Card_1" transform="translate(-629.000000, -2520.000000)" fill-rule="nonzero" fill="#1A1B1C">
            <g id="content" transform="translate(131.000000, 40.000000)">
                <g id="contact" transform="translate(59.000000, 2184.000000)">
                    <g id="1" transform="translate(0.000000, 78.000000)">
                        <g id="info" transform="translate(335.000000, 0.000000)">
                            <g id="item-copy-8" transform="translate(40.000000, 197.000000)">
                                <path d="M69.465992,29.1704356 C68.7901394,28.6319018 68.3395024,27.9408352 68.3395024,27.2777279 C68.3395024,26.7254431 68.7872177,26.2777279 69.3395024,26.2777279 C69.8917872,26.2777279 70.3395024,26.7254431 70.3395024,27.2777279 C70.3395024,27.1933942 70.3444171,27.2056253 70.3815656,27.2590196 C70.4676964,27.3828173 70.6048819,27.5237788 70.7740991,27.6541112 C71.1789227,27.9659096 71.6745491,28.1541788 72.1541788,28.1541788 C73.1539887,28.1541788 73.9688553,27.3380833 73.9688553,26.3330693 L73.9688553,23.8440009 C73.9688553,22.8315054 73.1600334,22.0228914 72.1541788,22.0228914 C71.129364,22.0228914 70.3395024,22.724446 70.3395024,23.524826 C70.3395024,24.0771107 69.8917872,24.524826 69.3395024,24.524826 C68.7872177,24.524826 68.3395024,24.0771107 68.3395024,23.524826 C68.3395024,21.563586 70.0741293,20.0228914 72.1541788,20.0228914 C74.2644879,20.0228914 75.9688553,21.7268209 75.9688553,23.8440009 L75.9688553,26.3330693 C75.9688553,27.4484959 75.4905928,28.4529442 74.7285177,29.1517717 C75.4911955,29.8494663 75.9688553,30.8544693 75.9688553,31.9752884 L75.9688553,34.4643567 C75.9688553,36.5732661 74.2592334,38.2854663 72.1541788,38.2854663 C70.285191,38.2854663 68.3395024,36.7868816 68.3395024,35.4090153 L68.3395024,31.6561134 C68.3395024,30.6758846 68.7728132,29.8007083 69.465992,29.1704356 Z M70.3395024,31.6561134 L70.3395024,35.4090153 C70.3395024,35.3246817 70.3444171,35.3369127 70.3815656,35.390307 C70.4676964,35.5141047 70.6048819,35.6550663 70.7740991,35.7853987 C71.1789227,36.097197 71.6745491,36.2854663 72.1541788,36.2854663 C73.1539887,36.2854663 73.9688553,35.4693707 73.9688553,34.4643567 L73.9688553,31.9752884 C73.9688553,30.9627929 73.1600334,30.1541788 72.1541788,30.1541788 C71.129364,30.1541788 70.3395024,30.8557334 70.3395024,31.6561134 Z" id="Combined-Shape" transform="translate(72.154179, 29.154179) rotate(-45.000000) translate(-72.154179, -29.154179) "></path>
                            </g>
                        </g>
                    </g>
                </g>
            </g>
        </g>
    </g>
</svg>

<svg width="15.215" height="15.264" version="1.1" viewBox="0 0 15.215098 15.263808" xmlns="http://www.w3.org/2000/svg">
 <title>Combined Shape</title>
 <desc>Created with Sketch.</desc>
 <g id="02-Model-card" transform="translate(-.511 -.57868)">
  <g transform="translate(-629,-2520)" >
   <g id="content" transform="translate(131,40)">
    <g id="contact" transform="translate(59,2184)">
     <g transform="translate(0,78)">
      <g id="info" transform="translate(335)">
       <g transform="translate(40,197)">
        <path id="Combined-Shape" transform="rotate(-45 72.154 29.154)" d="m69.466 29.17c-0.67585-0.53853-1.1265-1.2296-1.1265-1.8927 0-0.55228 0.44772-1 1-1 0.55228 0 1 0.44772 1 1 0-0.08433 0.0049-0.0721 0.04206-0.01871 0.08613 0.1238 0.22332 0.26476 0.39253 0.39509 0.40482 0.3118 0.90045 0.50007 1.3801 0.50007 0.99981 0 1.8147-0.8161 1.8147-1.8211v-2.4891c0-1.0125-0.80882-1.8211-1.8147-1.8211-1.0248 0-1.8147 0.70156-1.8147 1.5019 0 0.55228-0.44772 1-1 1-0.55228 0-1-0.44772-1-1 0-1.9612 1.7346-3.5019 3.8147-3.5019 2.1103 0 3.8147 1.7039 3.8147 3.8211v2.4891c0 1.1154-0.47826 2.1199-1.2403 2.8187 0.76268 0.69769 1.2403 1.7027 1.2403 2.8235v2.4891c0 2.1089-1.7096 3.8211-3.8147 3.8211-1.869 0-3.8147-1.4986-3.8147-2.8765v-3.7529c0-0.98023 0.43331-1.8554 1.1265-2.4857zm0.87351 2.4857v3.7529c0-0.08433 0.0049-0.0721 0.04206-0.01871 0.08613 0.1238 0.22332 0.26476 0.39253 0.39509 0.40482 0.3118 0.90045 0.50007 1.3801 0.50007 0.99981 0 1.8147-0.8161 1.8147-1.8211v-2.4891c0-1.0125-0.80882-1.8211-1.8147-1.8211-1.0248 0-1.8147 0.70155-1.8147 1.5019z"/>
       </g>
      </g>
     </g>
    </g>
   </g>
  </g>
 </g>
</svg>
